app/img/svg/android-logo.svg

<svg xmlns="http://www.w3.org/2000/svg" width="86" height="95"><defs><clipPath id="cp1"><path d="M1 1h84v94H1z"/></clipPath></defs><style></style><g id="Page 1" clip-path="url(#cp1)"><path id="Path 1" fill-rule="evenodd" d="M69.32 29.6v37.51c0 3.85-2.92 6.98-6.64 7.25v14.87c0 3.19-2.58 5.77-5.77 5.77-3.18 0-5.77-2.58-5.77-5.77V74.39H35.03v14.84c0 3.19-2.59 5.77-5.77 5.77-3.19 0-5.77-2.58-5.77-5.77V74.36c-3.72-.27-6.64-3.4-6.64-7.25V29.6c0-.23.02-.45.04-.67h52.4c.02.22.03.44.03.67zM6.77 32.27c3.19 0 5.77 2.59 5.77 5.77V62.8c0 3.19-2.58 5.77-5.77 5.77C3.58 68.57 1 65.99 1 62.8V38.04c0-3.19 2.58-5.77 5.77-5.77zm72.63 0c3.19 0 5.77 2.59 5.77 5.77V62.8c0 3.19-2.58 5.77-5.77 5.77-3.19 0-5.77-2.58-5.77-5.77V38.04c0-3.19 2.58-5.77 5.77-5.77zM23.43 10.3l-4.89-8.47a.604.604 0 0 1 .22-.83c.29-.17.67-.07.83.22l4.75 8.21c4.1-3.7 12.71-6.8 18.74-6.8 6.25 0 14.65 3.1 18.75 6.8l4.75-8.21c.16-.29.53-.39.83-.22.28.17.38.54.22.83l-4.89 8.47c3.9 3.9 6.29 8.98 6.37 14.55H17.06c.08-5.57 2.47-10.65 6.37-14.55zm28.22 4.24c0 1.61 1.34 2.91 2.99 2.91 1.65-.01 2.98-1.32 2.98-2.93v-.01c-.01-1.62-1.34-2.92-3-2.91-1.65 0-2.98 1.31-2.97 2.92v.02zm-22.29 0c.01 1.61 1.35 2.91 3 2.91 1.64-.01 2.98-1.32 2.97-2.93v-.01c0-1.62-1.34-2.92-2.99-2.91-1.65 0-2.98 1.31-2.98 2.92v.02z" fill="#a4c639"/></g></svg>

<svg xmlns="http://www.w3.org/2000/svg" viewBox="0 0 86 95" width="86" height="95">
	<defs>
		<clipPath clipPathUnits="userSpaceOnUse" id="cp1">
			<path d="M1 1L85 1L85 95L1 95Z" />
		</clipPath>
	</defs>
	<style>
		tspan { white-space:pre }
		.shp0 { fill: #a4c639 } 
	</style>
	<g id="Page 1" clip-path="url(#cp1)">
		<path id="Path 1" fill-rule="evenodd" class="shp0" d="M69.32 29.6L69.32 67.11C69.32 70.96 66.4 74.09 62.68 74.36L62.68 89.23C62.68 92.42 60.1 95 56.91 95C53.73 95 51.14 92.42 51.14 89.23L51.14 74.39L35.03 74.39L35.03 89.23C35.03 92.42 32.44 95 29.26 95C26.07 95 23.49 92.42 23.49 89.23L23.49 74.36C19.77 74.09 16.85 70.96 16.85 67.11L16.85 29.6C16.85 29.37 16.87 29.15 16.89 28.93L69.29 28.93C69.31 29.15 69.32 29.37 69.32 29.6ZM6.77 32.27C9.96 32.27 12.54 34.86 12.54 38.04L12.54 62.8C12.54 65.99 9.96 68.57 6.77 68.57C3.58 68.57 1 65.99 1 62.8L1 38.04C1 34.85 3.58 32.27 6.77 32.27ZM79.4 32.27C82.59 32.27 85.17 34.86 85.17 38.04L85.17 62.8C85.17 65.99 82.59 68.57 79.4 68.57C76.21 68.57 73.63 65.99 73.63 62.8L73.63 38.04C73.63 34.85 76.21 32.27 79.4 32.27ZM23.43 10.3L18.54 1.83C18.37 1.54 18.47 1.16 18.76 1C19.05 0.83 19.43 0.93 19.59 1.22L24.34 9.43C28.44 5.73 37.05 2.63 43.08 2.63C49.33 2.63 57.73 5.73 61.83 9.43L66.58 1.22C66.74 0.93 67.11 0.83 67.41 1C67.69 1.17 67.79 1.54 67.63 1.83L62.74 10.3C66.64 14.2 69.03 19.28 69.11 24.85L17.06 24.85C17.14 19.28 19.53 14.2 23.43 10.3ZM51.65 14.54C51.65 16.15 52.99 17.45 54.64 17.45C56.29 17.44 57.62 16.13 57.62 14.52L57.62 14.51C57.61 12.89 56.28 11.59 54.62 11.6C52.97 11.6 51.64 12.91 51.65 14.52L51.65 14.54ZM29.36 14.54C29.37 16.15 30.71 17.45 32.36 17.45C34 17.44 35.34 16.13 35.33 14.52L35.33 14.51C35.33 12.89 33.99 11.59 32.34 11.6C30.69 11.6 29.36 12.91 29.36 14.52L29.36 14.54Z" />
	</g>
</svg>
